!!!COA:	Josquin des Prez
!!!CDT:	~1450-1521/08/27
!!!OPR:	Missa Ad fugam
!!!ONM:	4
!!!OTL:	Sanctus (version I)
!!!AGN:	Mass; Sanctus
!!!SCT:	NJE 12.1
!!!SCA:	New Josquin Edition 12.1
!!!voices:	4
!!!voices-OPR:	4
**kern	**kern	**kern	**kern
*staff4	*staff3	*staff2	*staff1
*Ivox	*Ivox	*Ivox	*Ivox
*I"Bassus	*I"Tenor	*I"Altus	*I"Superius
*I'B	*I'T	*I'A	*I'S
*>[A,B,C,D,C]	*>[A,B,C,D,C]	*>[A,B,C,D,C]	*>[A,B,C,D,C]
*>A	*>A	*>A	*>A
*clefF4	*clefGv2	*clefGv2	*clefG2
*k[b-]	*k[b-]	*k[b-]	*k[]
*M3/1	*M3/1	*M3/1	*M3/1
*met(O)	*met(O)	*met(O)	*met(O)
=1-	=1-	=1-	=1-
!	!	!	!LO:TX:X=-40:Z=8:t=[Canon at the lower fifth]
0G	0.r	1.G	0g
.	.	2A/	.
1E	.	2.B-\	1g
.	.	4c\	.
=2	=2	=2	=2
1.F	0c	0A	2a/
.	.	.	1a
2G\	.	.	4g/
.	.	.	4f/
1A	1c	2r	1e
.	.	2A/	.
=3	=3	=3	=3
2r	2d\	2.B-\	1d
1D	1d	.	.
.	.	4A/	.
.	.	2F/	1r
1G	4c\	2G/	.
.	4B-\	.	.
.	1A	1D	1a
2F#i\	.	.	.
=4	=4	=4	=4
1G	1G	2r	1b-i
.	.	1d	.
2D\	1r	.	2a/
1F	.	2c\	1a
.	1d	2A/	.
2E\	.	2B-\	2g/
=5	=5	=5	=5
1C	1e-i	3c\V	1g
.	.	3G/	.
.	.	3A/Z	.
0BB-	2d\	0B-	1r
.	1d	.	.
.	.	.	2f/
.	2c\	.	2g/
=6	=6	=6	=6
0F	1c	2.A/	0a
.	.	4B-\	.
.	1r	2c\	.
.	.	2F/	.
1E	2B-\	1G	1g
.	2c\	.	.
=7	=7	=7	=7
0D	0d	0A	2f/
.	.	.	1a
.	.	.	4g/
.	.	.	4f/
1A	1c	2r	1e
.	.	2c\	.
=8	=8	=8	=8
1B-	2B-\	2d\	2d/
.	1d	2G/	2.b-i\
1G	.	2.B-\	.
.	.	.	4a/
.	4c\	.	1g
.	4B-\	4c\	.
1D	1A	2.d\	.
.	.	.	2f#i/
.	.	4B-\	.
=9	=9	=9	=9
2E-i\	2G/	2B-\	0g
2C/	2.e-i\	2c\	.
2.E-i\	.	2G/	.
.	4d\	.	.
.	1c	2c\	.
4F\	.	.	.
1D	.	2d\	1r
.	2Bni\	2f\	.
=10	=10	=10	=10
0C	0c	1.e	0.g
.	.	2e\	.
1C	1r	1e	.
=11	=11	=11	=11
0F	0.c	2.f\	1.a
.	.	4e\	.
.	.	2c\	.
.	.	2f\	2b\
1A	.	2e\	1cc
.	.	2f\	.
=12	=12	=12	=12
1.G	1.d	1.g	1b
.	.	.	0dd
1.B-	2e\	4f\	.
.	.	4e\	.
.	1f	1d	.
=13	=13	=13	=13
1.c	1e	0e	1g
.	0g	.	2r
1.G	.	.	2.b\
.	.	1d	.
.	.	.	4cc\
.	.	.	2dd\
=14	=14	=14	=14
2A\	1c	1r	2cc\
1F	.	.	1a
.	2r	0c	.
2E\	2.e\	.	4g/
.	.	.	4f/
1C	.	.	1e
.	4f\	.	.
.	2g\	.	.
=15	=15	=15	=15
2.D\	2f\	1.A	1d
.	1d	.	.
4E\	.	.	.
2F\	.	.	2r
1G	4c\	2B-\	2g/
.	4B-\	.	.
.	1A	2c\	2a/
2F#i\	.	2A/	2cc\
=16	=16	=16	=16
1G	1G	2B-\	1b-i
.	.	2.d\	.
0F	2r	.	0a
.	.	4e\	.
.	2c\	2.f\	.
.	2d\	.	.
.	.	4e\	.
.	2f\	[2c\	.
=17	=17	=17	=17
1C	1e	2c\]	2g/
.	.	1.g	2cc\
0G	0d	.	2dd\
.	.	.	1b
.	.	1g	.
.	.	.	2a/
=18	=18	=18	=18
2A\	2c\	2r	1cc
2F\	2f\	1c	.
2.c\	2g\	.	1r
.	1e	4Bni\	.
8B-\L	.	4A/	.
8A\J	.	.	.
1G	.	1Bni	1b
.	2d\	.	.
=19	=19	=19	=19
2.F\	1f	2c\	2.a/
.	.	2f\	.
4G\	.	.	4b\
2A\	1r	2e\	2cc\
2D\	.	2.a\	1dd
1A	1e	.	.
.	.	4g\	.
.	.	2a\	2cc#i\
=20	=20	=20	=20
1B-	2.d\	1f	1dd
.	4e\	.	.
2A\	2f\	1r	2cc\
2G\	1g	.	2b\
1d	.	1r	1a
.	2f#i\	.	.
=21	=21	=21	=21
1G	1g	2.d\	1g
.	.	4e\	.
2D\	2f\	2f\	2r
2E\	2e\	2g\	2g/
2F\	1d	2r	2a/
2G\	.	2g\	2b\
=22	=22	=22	=22
1A	1c	2e\	0cc
.	.	1c	.
2F\	2r	.	.
2A\	2c\	2A/	.
1G	2d\	1Bni	1b
.	2e\	.	.
=23	=23	=23	=23
2F\	0f	2c\	0a
2.D\	.	1d	.
4E\	.	.	.
2F\	.	1.c	.
1C	1e	.	1g
=24	=24	=24	=24
0D	0d	2A/	1.f
.	.	2.d\	.
.	.	4c\	.
.	.	1B-	2d/
1r	1c	.	2.e/
.	.	2A/	.
.	.	.	4f/
=25	=25	=25	=25
2.G\	1.B-	2B-\	2.d/
.	.	1d	.
4F\	.	.	4e/
2D\	.	.	2f/
2E\	2G/	2c\	1g
1D	2.A/	1d	.
.	.	.	2f#i/
.	4B-\	.	.
=26	=26	=26	=26
2E\	2.G/	2.B-\	1.g
1G	.	.	.
.	4A/	4c\	.
.	2B-\	2d\	.
2C/	1c	2e-i\	2e-i/
1D	.	1d	2.f/
.	2Bni\	.	.
.	.	.	4g/
=27	=27	=27	=27
2.C/	1.c	0.r	2.e/
4D\	.	.	4f/
2E\	.	.	2g/
2F\	2A/	.	1a
1E	2.B-\	.	.
.	.	.	2g/
.	4c\	.	.
=28	=28	=28	=28
1.F	2.A/	1c	1.a
.	4B-\	.	.
.	2c\	2B-\	.
2D\	1d	1A	2f/
1E	.	.	2.g/
.	2c\	2G/	.
.	.	.	4a/
=29	=29	=29	=29
2.D\	1.d	2A/	2.f/
.	.	1f	.
4E\	.	.	4g/
2F\	.	.	2a/
1G	2B-\	2e\	1b-i
.	2.c\	1f	.
2F\	.	.	2a/
.	4d\	.	.
=30	=30	=30	=30
2.G\	2.B-\	2r	1.b-i
.	.	2.d\	.
4A\	4c\	.	.
2B-\	2d\	.	.
.	.	4c\	.
2E-i\	1e-i	1B-	2g/
1F	.	.	2.a/
.	2d\	2A/	.
.	.	.	4b-i\
=31	=31	=31	=31
2.E-i\	1.e-i	1B-	2.g/
4F\	.	.	4a/
2G\	.	1r	2b-i\
2A\	2c\	.	1cc
1G	2.d\	1g	.
.	.	.	2bni\
.	4e-i\	.	.
=32	=32	=32	=32
1.A	2.c\	2e\	1.cc
.	.	2.f\	.
.	4d\	.	.
.	2e\	.	.
.	.	4e\	.
2F\	1f	4d\	2a/
.	.	4c\	.
2.G\	.	2.Bni\	2.b\
.	2e\	.	.
4A\	.	4A/	4cc\
=33	=33	=33	=33
2.F\	1.f	1c	2.a/
4G\	.	.	4b\
2A\	.	1r	2cc\
2B-\	2d\	.	1dd
1A	2.e\	2r	.
.	.	[2A/	2cc#i\
.	4f\	.	.
=34	=34	=34	=34
1D	2.d\	2A/]	1.dd
.	.	1B-	.
.	4e\	.	.
1r	2f\	.	.
.	1g	2G/	4cc\
.	.	.	4b\
1D	.	1d	1a
.	2f#i\	.	.
=35	=35	=35	=35
2.G\	[0.gl	2.B-\	[0.gl
4A\	.	4c\	.
2B-\	.	2d\	.
1c	.	1e-i	.
4B-\	.	4d\	.
4A\	.	4c\	.
=36	=36	=36	=36
0.Gl	0.g]	0.dl	0.g]
!!LO:LB:i:g=z
=37||	=37||	=37||	=37||
*>B	*>B	*>B	*>B
*clefF4	*clefGv2	*clefGv2	*clefG2
*k[b-]	*k[b-]	*k[b-]	*k[]
*M3/1	*M3/1	*M3/1	*M3/1
*met(O)	*met(O)	*met(O)	*met(O)
!!section: Pleni
!!!OMD: Pleni
2.G\	0.r	0.r	1.g
4A\	.	.	.
2B-\	.	.	.
1c	.	.	4f/
.	.	.	4e/
.	.	.	1d
2Bni\	.	.	.
=38	=38	=38	=38
2c\	1.c	0.r	1.e
2.A\	.	.	.
4G\	.	.	.
2F\	4B-\	.	2f/
.	4A/	.	.
1E	1G	.	1g
=39	=39	=39	=39
2D\	1.A	0.r	2f/
2.F\	.	.	2.a/
4E\	.	.	4g/
2D\	2B-\	.	2f/
4C/	1c	.	1e
4D\	.	.	.
4E\	.	.	.
4F\	.	.	.
=40	=40	=40	=40
2G\	2B-\	0.r	1d
2.B-\	2.d\	.	.
.	.	.	1r
4A\	4c\	.	.
2G\	2B-\	.	.
2.F#i\	1A	.	1cc
4E\	.	.	.
=41	=41	=41	=41
2G\	1G	0.r	2b\
2.E\	.	.	2.g/
.	1r	.	.
4F\	.	.	4a/
4G\	.	.	4b\
4A\	.	.	4cc\
4F\	1f	.	1a
4G\	.	.	.
4A\	.	.	.
4B-\	.	.	.
=42	=42	=42	=42
1c	2e\	0.r	1g
.	2.c\	.	.
1C	.	.	1r
.	4d\	.	.
.	4e\	.	.
.	4f\	.	.
1BB-	1d	.	1f
=43	=43	=43	=43
2C/	1c	0.r	2e/
2.C/	.	.	1g
.	1r	.	.
4D\	.	.	.
4E\	.	.	4f/
4F\	.	.	4e/
1G	1B-	.	1d
=44	=44	=44	=44
4C/	2A/	0.r	1c
4D\	.	.	.
4E\	1c	.	.
4F\	.	.	.
2G\	.	.	1r
1c	4B-\	.	.
.	4A/	.	.
.	1G	.	1g
2B-\	.	.	.
=45	=45	=45	=45
2c\	1F	0.r	1a
2.c\	.	.	.
.	1r	.	2a/
4B-\	.	.	.
4A\	.	.	2.cc\
4G\	.	.	.
1A	1c	.	.
.	.	.	4a/
.	.	.	2cc\
=46	=46	=46	=46
2G\	1d	0.r	2b\
4F\	.	.	1dd
4E\	.	.	.
0D	2d\	.	.
.	2.f\	.	4cc\
.	.	.	4b\
.	.	.	1a
.	4d\	.	.
.	2f\	.	.
=47	=47	=47	=47
2r	2e\	0.r	2.g/
2.G\	1g	.	.
.	.	.	4a/
.	.	.	4b\
4A\	.	.	4cc\
2.B-\	4f\	.	2.dd\
.	4e\	.	.
.	1d	.	.
4A\	.	.	4cc\
[2F\	.	.	[2a/
=48	=48	=48	=48
4F\]	2.c\	0.r	4a/]
4G\	.	.	4b\
2A\	.	.	2cc\
.	4d\	.	.
2G\	4e\	.	2b\
.	4f\	.	.
1G	2.g\	.	1b
.	4f\	.	.
4F\	[2d\	.	4a/
4E\	.	.	4g/
=49	=49	=49	=49
1D	4d\]	0.r	1a
.	4e\	.	.
.	2f\	.	.
2E\	2e\	.	2.g/
1C	1e	.	.
.	.	.	4f/
.	.	.	2g/
4BB-/	4d\	.	2a/
4AA/	4c\	.	.
=50	=50	=50	=50
4BB-/	1d	0.r	1f
4C/	.	.	.
4D\	.	.	.
4BB-/	.	.	.
1C	2.c\	.	2e/
.	.	.	2.cc\
.	4B-\	.	.
1F	2c\	.	.
.	.	.	4b\
.	2d\	.	[2a/
=51	=51	=51	=51
1G	1B-	0.r	4a/]
.	.	.	4g/
.	.	.	2g/
2r	2A/	.	2.a/
2.D\	2.f\	.	.
.	.	.	4g/
.	.	.	2a/
4E\	4e\	.	.
4F\	[2d\	.	2f/
4G\	.	.	.
=52	=52	=52	=52
1A	4d\]	0.r	1e
.	4c#i\	.	.
.	2c#i\	.	.
2D\	2.d\	.	1d
1B-	.	.	.
.	4cni\	.	.
.	2d\	.	1r
4A\	2B-\	.	.
4G\	.	.	.
=53	=53	=53	=53
2.F#i\	1A	0.r	1a
4E\	.	.	.
2G\	1G	.	1b-i
4Fni\	.	.	.
4E\	.	.	.
2F\	1r	.	2a/
2G\	.	.	[2g/
=54	=54	=54	=54
1D	1d	0.r	2g/]
.	.	.	2f#i/
2r	1e-i	.	1g
2C/	.	.	.
2D\	2d\	.	2fni/
2E\	[2c\	.	2e/
=55	=55	=55	=55
2F\	2c\]	0.r	1d
2G\	2Bni\	.	.
4C/	1c	.	1c
4D\	.	.	.
4E\	.	.	.
4F\	.	.	.
2G\	2B-\	.	1r
[2F\	2A/	.	.
=56	=56	=56	=56
2F\]	1G	0.r	1g
2E\	.	.	.
2F\	1F	.	1.a
2D\	.	.	.
2F\	1r	.	.
2G\	.	.	[2g/
=57	=57	=57	=57
1E	1c	0.r	1g]
4D\	1.d	.	2f/
4E\	.	.	.
4F\	.	.	2d/
4G\	.	.	.
2F\	.	.	2f/
[2C/	[2c\	.	2g/
=58	=58	=58	=58
4C/]	1c]	0.r	1e
4D\	.	.	.
4E\	.	.	.
4F\	.	.	.
1.G	2B-\	.	2d/
.	2G/	.	2.b-i\
.	2B-\	.	.
.	.	.	4a/
2C/	2c\	.	[2g/
=59	=59	=59	=59
1D	1A	0.r	2g/]
.	.	.	2f#i/
0Gl	0Gl	.	0gl
!!LO:LB:i:g=z
=60||	=60||	=60||	=60||
*>C	*>C	*>C	*>C
*clefF4	*clefGv2	*clefGv2	*clefG2
*k[b-]	*k[b-]	*k[b-]	*k[]
*M2/1	*M2/1	*M2/1	*M2/1
*met(O2)	*met(O2)	*met(O2)	*met(O2)
!!section: Osanna
!!!OMD: Osanna
1.G	0r	1.d	1.g
2A\	.	2c\	2f/
=61.	=61.	=61.	=61.
1B-	0r	1d	1g
1c	.	2e\	1a
.	.	[2c\	.
=62.	=62.	=62.	=62.
1C	0r	2c\]	2g/
.	.	2e\	1cc
1G	.	1d	.
.	.	.	2b\
=63	=63	=63	=63
0A	1.c	1c	0cc
.	.	[1A	.
.	2B-\	.	.
=64.	=64.	=64.	=64.
1F	1c	1A]	1a
1D	1d	1F	1b-i
=65.	=65.	=65.	=65.
1F	2c\	0c	2a/
.	1f	.	2f/
1C	.	.	1g
.	2e\	.	.
=66	=66	=66	=66
0F	0f	1c	0f
.	.	2d\	.
.	.	[2f\	.
=67.	=67.	=67.	=67.
0r	1d	2f\]	0r
.	.	4e\	.
.	.	4d\	.
.	1e-i	1c	.
=68.	=68.	=68.	=68.
0r	2d\	2G/	0r
.	2B-\	1B-	.
.	1c	.	.
.	.	2A/	.
=69	=69	=69	=69
0G	0B-	0B-	0d
=70.	=70.	=70.	=70.
1D	0r	1A	1d
[1G	.	[1B-	1d
=71.	=71.	=71.	=71.
0G]	0r	2B-\]	0g
.	.	2c\	.
.	.	1d	.
=72	=72	=72	=72
1.E	0G	1e	1g
.	.	[1g	1g
2C/	.	.	.
=73.	=73.	=73.	=73.
0C	1G	2g\]	0e
.	.	2f\	.
.	1G	2e\	.
.	.	2d\	.
=74.	=74.	=74.	=74.
1C	0c	1e	1e
1C	.	[1c	1e
=75	=75	=75	=75
0F	1c	2c\]	0a
.	.	2A/	.
.	1c	[1A	.
=76.	=76.	=76.	=76.
1.F	0A	2A/]	1a
.	.	2B-\	.
.	.	1c	1a
2D\	.	.	.
=77.	=77.	=77.	=77.
[0D	1A	1.d	1f
.	1A	.	1d
.	.	4c\	.
.	.	4B-\	.
=78	=78	=78	=78
0D_	0d	[0A	1.f
.	.	.	2g/
=79.	=79.	=79.	=79.
0D]	1d	0A]	0a
.	1d	.	.
=80.	=80.	=80.	=80.
0G	1B-	1G	[0d
.	1G	[1B-	.
=81	=81	=81	=81
0r	1.B-	2B-\]	1d]
.	.	2c\	.
.	.	[1d	[1f
.	2c\	.	.
=82.	=82.	=82.	=82.
1D	0d	2d\]	2f/]
.	.	2e\	2g/
1D	.	1f	1a
=83.	=83.	=83.	=83.
1d	[0G	[0g	1b-i
[1B-	.	.	1g
=84	=84	=84	=84
1B-]	1G]	0g]	1.b-i
[1G	[1B-	.	.
.	.	.	2cc\
=85.	=85.	=85.	=85.
2G\]	2B-\]	0G	0dd
2A\	2c\	.	.
1B-	1d	.	.
=86.	=86.	=86.	=86.
[0c	1e-i	1r	0g
.	1c	[1g	.
=87	=87	=87	=87
0c]	1.e-i	2g\]	1r
.	.	2f\	.
.	.	1e-i	[1g
.	2f\	.	.
=88.	=88.	=88.	=88.
0G	0g	0d	2g/]
.	.	.	2a/
.	.	.	1b
=89.	=89.	=89.	=89.
1.A	0c	1r	1.cc
.	.	1c	.
4G\	.	.	2b\
4F\	.	.	.
=90	=90	=90	=90
1E	1r	1B-	1g
1F	[1c	1A	[1a
=91.	=91.	=91.	=91.
0C	2c\]	[0c	1a]
.	2d\	.	.
.	1e	.	1g
=92.	=92.	=92.	=92.
[0F	1.f	0c]	1.a
.	2e\	.	2g/
=93	=93	=93	=93
1F]	1c	0A	1a
1D	[1d	.	1f
=94.	=94.	=94.	=94.
0A	1d]	0r	0e
.	1c	.	.
=95.	=95.	=95.	=95.
1.B-	1.d	0r	0d
4A\	2c\	.	.
4G\	.	.	.
=96	=96	=96	=96
1F	1d	1A	1r
1G	1B-	[1d	[1g
=97.	=97.	=97.	=97.
0D	0A	2d\]	1g]
.	.	2c\	.
.	.	1d	1f#i
=98.	=98.	=98.	=98.
1E-i	0G	1B-	[0g
1C	.	[1e-i	.
=99	=99	=99	=99
1.E-i	1r	2e-\]	0g_
.	.	2d\	.
.	[1c	1e-i	.
2F\	.	.	.
=100.	=100.	=100.	=100.
0G	1c]	0d	0g]
.	1Bni	.	.
=101.	=101.	=101.	=101.
1.C	[0c	1.c	1.e
2D\	.	4B-\	2f/
.	.	4A/	.
=102	=102	=102	=102
1E	0c_	1G	1g
1F	.	2F/	[1a
.	.	[2f\	.
=103.	=103.	=103.	=103.
0C	0c]	2f\]	1a]
.	.	2e\	.
.	.	2e\	1g
.	.	2d\	.
=104.	=104.	=104.	=104.
1.F	1.A	0f	[0a
2G\	2B-\	.	.
=105	=105	=105	=105
1A	1c	1e	0a_
1D	[1d	1d	.
=106.	=106.	=106.	=106.
0A	1d]	0e	0a]
.	1c#i	.	.
=107.	=107.	=107.	=107.
0D	[0d	1.d	0f
.	.	2c\	.
=108	=108	=108	=108
1G	0d_	1B-	1d
1F	.	1A	[1f
=109.	=109.	=109.	=109.
0D	0d]	1r	2f/]
.	.	.	2g/
.	.	[1d	1a
=110.	=110.	=110.	=110.
[0G	0B-	2d\]	1b-i
.	.	2c\	.
.	.	1d	2g/
.	.	.	[2b-i\
=111	=111	=111	=111
0G]	1G	1e	2b-\]
.	.	.	2cc\
.	[1B-	2d\	[1dd
.	.	[2g\	.
=112.	=112.	=112.	=112.
0r	2B-\]	2g\]	2dd\]
.	2c\	2e\	4cc\
.	.	.	4b-i\
.	1d	2.f#i\	1a
.	.	4e\	.
=113.	=113.	=113.	=113.
0C	1e-i	0g	1.g
.	2c\	.	.
.	[2e-i\	.	2a/
=114	=114	=114	=114
1G	2e-yi\]	1.g	1b-i
.	2f\	.	.
1C	[1g	.	[1cc
.	.	4f\	.
.	.	4e\	.
=115.	=115.	=115.	=115.
0G	2g\]	1d	1cc]
.	4f\	.	.
.	4e-i\	.	.
.	1d	[1g	1b
=116.	=116.	=116.	=116.
0C	1.c	2g\]	1.cc
.	.	2f\	.
.	.	[1e	.
.	2d\	.	4b\
.	.	.	4cc\
=117	=117	=117	=117
1r	1e	2e\]	2b\
.	.	2d\	2a/
1F	[1f	1c	[1a
=118.	=118.	=118.	=118.
0G	1f]	0B-	1a]
.	1e	.	1g
=119.	=119.	=119.	=119.
0D	1.f	0A	1a
.	.	.	1f
.	4e\	.	.
.	4f\	.	.
=120	=120	=120	=120
1E	2e\	1r	1g
.	2d\	.	.
1F	[1d	1a	1d
=121.	=121.	=121.	=121.
1G	1d]	1g	0e
1A	1c	1e	.
=122.	=122.	=122.	=122.
1D	1d	2f\	1d
.	.	1d	.
1G	1B-	.	1b-i
.	.	2e\	.
=123	=123	=123	=123
1F	1c	2.f\	1a
.	.	8e\L	.
.	.	8d\J	.
1E	1G	1c	[1g
=124.	=124.	=124.	=124.
0D	0A	0d	1g]
.	.	.	1f#i
=125.	=125.	=125.	=125.
0Gl	0Gl	0dl	0gl
!!LO:LB:i:g=z
!!LO:TX:rj:i:t=fine
=126||	=126||	=126||	=126||
*>D	*>D	*>D	*>D
*clefF4	*clefGv2	*clefGv2	*clefG2
*k[b-]	*k[b-]	*k[b-]	*k[]
*M2/1	*M2/1	*M2/1	*M2/1
*met(C|)	*met(C|)	*met(C|)	*met(C|)
!!section: Benedictus
!!!OMD: Benedictus
!LO:TX:X=-40:Z=20:t=Benedictus Si placet	!	!	!
0G	0r	[0g	[0g
=127	=127	=127	=127
1c	0r	1g]	0g]
1e	.	1e	.
=128	=128	=128	=128
0d	0r	1.f	0a
.	.	4e\	.
.	.	4f\	.
=129	=129	=129	=129
0G	0r	0g	1g
.	.	.	1b
=130	=130	=130	=130
1A	0r	1e	1cc
1B-	.	1d	[1dd
=131	=131	=131	=131
0G	0r	0g	2dd\]
.	.	.	2cc\
.	.	.	1b
=132	=132	=132	=132
0d	0r	1f	1.a
.	.	[1a	.
.	.	.	2b\
=133	=133	=133	=133
1r	0r	2a\]	2cc\
.	.	2f\	2dd\
[1c	.	[1g	[1ee
=134	=134	=134	=134
1c]	0r	2g\]	2ee\]
.	.	2d\	2dd\
1d	.	1f	[1dd
=135	=135	=135	=135
0A	0r	0e	2dd\]
.	.	.	4cc#i\
.	.	.	4b\
.	.	.	1cc#i
=136	=136	=136	=136
1.B-	0r	1r	0dd
.	.	[1d	.
4A\	.	.	.
4B-\	.	.	.
=137	=137	=137	=137
1A	0r	2d\]	1r
.	.	2c\	.
[1G	.	1B-	1dd
=138	=138	=138	=138
1G]	0r	0A	1.cc
1F#i	.	.	.
.	.	.	4b\
.	.	.	4a/
=139	=139	=139	=139
[0G	0r	0G	1b
.	.	.	[1dd
=140	=140	=140	=140
1G]	0r	1r	2dd\]
.	.	.	2cc\
1G	.	[1g	1b
=141	=141	=141	=141
0d	0r	1g]	0a
.	.	1f#i	.
=142	=142	=142	=142
1G	0r	0g	1b
1E	.	.	[1g
=143	=143	=143	=143
1G	0r	1d	1g]
1F	.	[1f	[1a
=144	=144	=144	=144
1D	0r	2f\]	2a/]
.	.	2e\	2g/
1F	.	[1d	1f
=145	=145	=145	=145
1G	0r	2d\]	0e
.	.	4c#i\	.
.	.	4Bni\	.
1A	.	1c#i	.
=146	=146	=146	=146
*M3/1	*M3/1	*M3/1	*M3/1
*met(3)	*met(3)	*met(3)	*met(3)
0.r	0.r	1d	0d
.	.	1B-	.
.	.	1c	1e
=147	=147	=147	=147
0.r	0.r	0d	0f
.	.	1e	1g
=148	=148	=148	=148
0.r	0.r	1c	0a
.	.	0d	.
.	.	.	[1b-i
=149	=149	=149	=149
0.r	0.r	0G	1b-]
.	.	.	0g
.	.	[1c	.
=150	=150	=150	=150
0.A	0.r	1c]	0cc
.	.	0e-i	.
.	.	.	1cc
=151	=151	=151	=151
1D	0.r	1d	1.dd
1G	.	1B-	.
.	.	.	2cc\
1F	.	1c	1a
=152	=152	=152	=152
1.D	0.r	0d	1.b-i
2E\	.	.	2g/
1F	.	1c	1a
=153	=153	=153	=153
1G	0.r	1B-	0g
0D	.	0A	.
.	.	.	1f#i
=154	=154	=154	=154
0.d	0.r	[0.G	0.g
=155	=155	=155	=155
0.r	0.r	0.G]	0.r
=156	=156	=156	=156
0.r	0.r	1.G	0g
.	.	2A/	.
.	.	1B-	1g
=157	=157	=157	=157
0.r	0.r	0.c	1g
.	.	.	0a
=158	=158	=158	=158
0.r	0.r	1.d	1.b
.	.	2e\	2g/
.	.	1f	1a
=159	=159	=159	=159
0G	0.r	0g	0b
1F	.	1a	1cc
=160	=160	=160	=160
1D	0.r	1f	0dd
0A	.	0e	.
.	.	.	1cc#i
=161	=161	=161	=161
0D	0.r	0.d	0dd
1G	.	.	1b
=162	=162	=162	=162
1C	0.r	1e	1cc
0D	.	0f	0a
=163	=163	=163	=163
1G	0.r	0g	0.g
0E	.	.	.
.	.	[1c	.
=164	=164	=164	=164
1F	0.r	1c]	0a
0D	.	0d	.
.	.	.	1f
=165	=165	=165	=165
1C	0.r	1e	1g
1F	.	1f	1a
1E	.	1g	1g
=166	=166	=166	=166
1C	0.r	1e	0cc
0G	.	1.d	.
.	.	.	1b
.	.	2c\	.
=167	=167	=167	=167
*M2/1	*M2/1	*M2/1	*M2/1
*met(C|)	*met(C|)	*met(C|)	*met(C|)
1C	0r	0c	[0cc
[1F	.	.	.
=168	=168	=168	=168
2F\]	0r	1r	0cc]
2G\	.	.	.
1A	.	1c	.
=169	=169	=169	=169
1D	0r	1d	1r
1d	.	1f	1a
=170	=170	=170	=170
1G	0r	0e	2b\
.	.	.	1dd
1A	.	.	.
.	.	.	2cc\
=171	=171	=171	=171
1B-	0r	[0d	1.dd
[1G	.	.	.
.	.	.	2cc\
=172	=172	=172	=172
1G]	0r	1d]	1b
1A	.	1c	[1a
=173	=173	=173	=173
1F	0r	1d	2a/]
.	.	.	2g/
1G	.	1B-	[1g
=174	=174	=174	=174
0D	0r	0A	1g]
.	.	.	1f#i
=175	=175	=175	=175
0Gl	0r	0Gl	0gl
!!LO:TX:i:Y=40:rj:t=Osanna ut supra
=||	=||	=||	=||
*-	*-	*-	*-
!!!RDF**kern: l=long note in original notation
!!!RDF**kern: i=editorial accidental
!!!RDF**kern: V=start of tuplet marker
!!!RDF**kern: Z=end of tuplet marker
!!!ENC:	Jesse Rodin; Victoria Chang 2012/02/04
!!!END:	2012/02/04/
!!!EED:	Jesse Rodin
!!!EEV:	2013/08/10/
!!attribution-level@Jos: 4 (questionable)
!!!ONB:	Translated from MusicXML and edited on 2012/08/29/ by Craig Sapp
!!muse2ps: T^@{OPR}^u^@{ONM}{. }@{OTL}^C^@{COA}?\n@{SCT}^i2I150v85,85,85,150Q8c120
